icons/glyphs/glyph-bomi.svg

<?xml version="1.0" encoding="UTF-8" standalone="no"?><svg height="16" viewBox="0 0 4.2333332 4.2333332" width="16" xmlns="http://www.w3.org/2000/svg"><sodipodi:namedview/><metadata><rdf:RDF><cc:Work><dc:format>image/svg+xml</dc:format><dc:type/><dc:title/></cc:Work></rdf:RDF></metadata><path d="m2.1166666.0000882a2.1166666 2.1166666 0 0 0 -.3527777.029972v2.9686248c0 .09772-.078669.176389-.176389.176389h-.1763888c-.097719 0-.1763889-.078669-.1763889-.176389v-2.8033484a2.1166666 2.1166666 0 0 0 -1.2347222 1.92133 2.1166666 2.1166666 0 0 0 2.1166666 2.1166666 2.1166666 2.1166666 0 0 0 2.1166666-2.1166666 2.1166666 2.1166666 0 0 0 -2.1166666-2.1166666m-.087505 1.0583333a.08820326.09622137 0 0 1  .04203.012065l1.5875002.9622014a.08820326.09622137 0 0 1 0 .1681197l-1.5875.9622018a.08820326.09622137 0 0 1 -.1309141-.0840603v-1.9244027a.08820326.09622137 0 0 1  .088884-.096118" fill="#d0d0d0" stroke-linejoin="round" stroke-width="4"/></svg>

<?xml version="1.0" encoding="UTF-8" standalone="no"?>
<!-- Created with Inkscape (http://www.inkscape.org/) -->

<svg
   xmlns:dc="http://purl.org/dc/elements/1.1/"
   xmlns:cc="http://creativecommons.org/ns#"
   xmlns:rdf="http://www.w3.org/1999/02/22-rdf-syntax-ns#"
   xmlns:svg="http://www.w3.org/2000/svg"
   xmlns="http://www.w3.org/2000/svg"
   xmlns:sodipodi="http://sodipodi.sourceforge.net/DTD/sodipodi-0.dtd"
   xmlns:inkscape="http://www.inkscape.org/namespaces/inkscape"
   width="16"
   height="16"
   viewBox="0 0 4.2333332 4.2333332"
   version="1.1"
   id="svg8"
   inkscape:version="0.92+devel (b8837397f6, 2017-07-27, custom)"
   sodipodi:docname="glyph-bomi.svg">
  <defs
     id="defs2" />
  <sodipodi:namedview
     id="base"
     pagecolor="#002466"
     bordercolor="#ffffff"
     borderopacity="0.38039216"
     inkscape:pageopacity="1"
     inkscape:pageshadow="2"
     inkscape:zoom="36.415999"
     inkscape:cx="10.094581"
     inkscape:cy="7.9162778"
     inkscape:document-units="px"
     inkscape:current-layer="svg8"
     inkscape:document-rotation="0"
     showgrid="false"
     inkscape:showpageshadow="false"
     borderlayer="true"
     inkscape:window-width="1920"
     inkscape:window-height="1051"
     inkscape:window-x="0"
     inkscape:window-y="0"
     inkscape:window-maximized="1"
     units="px" />
  <metadata
     id="metadata5">
    <rdf:RDF>
      <cc:Work
         rdf:about="">
        <dc:format>image/svg+xml</dc:format>
        <dc:type
           rdf:resource="http://purl.org/dc/dcmitype/StillImage" />
        <dc:title></dc:title>
      </cc:Work>
    </rdf:RDF>
  </metadata>
  <path
     fill="#ffffff"
     stroke-linejoin="round"
     stroke-width="4"
     d="M 2.1166666,8.82e-5 A 2.1166666,2.1166666 0 0 0 1.7638889,0.0300602 V 2.998685 c 0,0.09772 -0.078669,0.176389 -0.176389,0.176389 H 1.4111111 c -0.097719,0 -0.1763889,-0.078669 -0.1763889,-0.176389 V 0.1953366 A 2.1166666,2.1166666 0 0 0 0,2.1166666 2.1166666,2.1166666 0 0 0 2.1166666,4.2333332 2.1166666,2.1166666 0 0 0 4.2333332,2.1166666 2.1166666,2.1166666 0 0 0 2.1166666,0 m -0.087505,1.0583333 a 0.08820326,0.09622137 0 0 1 0.04203,0.012065 l 1.5875002,0.9622014 a 0.08820326,0.09622137 0 0 1 0,0.1681197 l -1.5875,0.9622018 A 0.08820326,0.09622137 0 0 1 1.9402777,3.0788609 V 1.1544582 a 0.08820326,0.09622137 0 0 1 0.088884,-0.096118"
     id="path22"
     inkscape:connector-curvature="0"
     inkscape:label="#"
     style="fill:#d0d0d0" />
</svg>
